X: 17642
T: Hole In The Hedge, The
R: jig
M: 6/8
K: Cmajor
|:B,CE EDE|GED DED|B,CE EGc|AGE DED|
B,CE EDE|GEG ccG|cde dcA|1 G,A,C DED:|2 G,A,C DEG||
cce dcA|AGE GAB|ccG AcA|GEC DEG|
cce dcA|AGE GAB|ccc AcA|GEC DEG|
cce dcA|AGE GAB|cde cde|age dcA|
cce dcA|AGE GAB|ccc AcA|GEC DED||

